packages/kaspersky-hexa-ui-icons/src/iconsSVGs/28x20/FlagTg.svg

<svg width="28" height="20" viewBox="0 0 28 20" fill="none" xmlns="http://www.w3.org/2000/svg">
<g clip-path="url(#clip0_5138_1870)">
<rect width="28" height="20" rx="2" fill="white"/>
<mask id="mask0_5138_1870" style="mask-type:luminance" maskUnits="userSpaceOnUse" x="0" y="0" width="28" height="20">
<rect width="28" height="20" rx="2" fill="white"/>
</mask>
<g mask="url(#mask0_5138_1870)">
<rect width="28" height="20" fill="#FFD44D"/>
<path fill-rule="evenodd" clip-rule="evenodd" d="M12 0H28V4H12V0ZM12 8H28V12H12V8ZM28 16H0V20H28V16Z" fill="#159A74"/>
<rect width="12" height="12" fill="#ED1F45"/>
<path fill-rule="evenodd" clip-rule="evenodd" d="M6 7.56L3.64886 9.23607L4.51635 6.48207L2.19577 4.76393L5.08306 4.73793L6 2L6.91694 4.73793L9.80423 4.76393L7.48365 6.48207L8.35114 9.23607L6 7.56Z" fill="white"/>
</g>
</g>
<defs>
<clipPath id="clip0_5138_1870">
<rect width="28" height="20" fill="white"/>
</clipPath>
</defs>
</svg>

<svg xmlns="http://www.w3.org/2000/svg" width="28" height="20" fill="none" viewBox="0 0 28 20"><g clip-path="url(#a)"><rect width="28" height="20" fill="#fff" rx="2"/><mask id="b" width="28" height="20" x="0" y="0" maskUnits="userSpaceOnUse" style="mask-type:luminance"><rect width="28" height="20" fill="#fff" rx="2"/></mask><g mask="url(#b)"><path fill="#ffd44d" d="M0 0h28v20H0z"/><path fill="#159a74" fill-rule="evenodd" d="M12 0h16v4H12zm0 8h16v4H12zm16 8H0v4h28z" clip-rule="evenodd"/><path fill="#ed1f45" d="M0 0h12v12H0z"/><path fill="#fff" fill-rule="evenodd" d="M6 7.56 3.6489 9.236l.8675-2.754-2.3206-1.718 2.8873-.026L6 2l.917 2.738 2.8872.026-2.3205 1.718.8674 2.754z" clip-rule="evenodd"/></g></g><defs><clipPath id="a"><path fill="#fff" d="M0 0h28v20H0z"/></clipPath></defs></svg>
